X: 2034
T: Derains
B: steve tunes
M:6/8
Q: 3/8=105
K:Bm
V:1 
"Bm"B2B BAF|"F#m"AFE EFE|"D"DFA def|"A"afe dBA|
"Bm"B2B BAF|"F#m"AFE EFE|"D"DFA def|1 "Bm"edB B2A:|2 "Bm"edB Bcd||
|:"Em"efe edB|"F#m"AFF dFF|"D"def ~a3|"G"baf "D"~a3|
"Em"baf afa|"D"baf edB|def afe|1 "G"dBA Bcd:|2 "A"dBA "G"B2A||
W: 
% abcbook-tune_id 62a4b8d390b7535e1ceba413


% abcbook-boost 0
% abcbook-tablature 
% abcbook-transpose 
% abcbook-lastupdated 1654962734034
% abcbook-soundfonts 
% abcbook-repeats 3


